src/icons/outline/status/warning.svg

<svg width="24" height="24" viewBox="0 0 24 24" fill="none" xmlns="http://www.w3.org/2000/svg">
<g clip-path="url(#clip0_4536_425)">
<path d="M12.9867 15C13.4981 15 13.9905 15.4833 13.9906 15.9951C13.9906 16.507 13.4981 17 12.9867 17C12.4753 16.9999 11.9925 16.5069 11.9925 15.9951C11.9926 15.4834 12.4753 15.0001 12.9867 15Z" fill="#3C3B44"/>
<path d="M12.9916 6C13.5421 6.00001 13.9905 6.38715 13.9906 6.8623V13.1377C13.9905 13.6129 13.5421 14 12.9916 14C12.441 14 11.9927 13.6129 11.9925 13.1377V6.8623C11.9927 6.38714 12.441 6 12.9916 6Z" fill="#3C3B44"/>
<path fill-rule="evenodd" clip-rule="evenodd" d="M12.9935 2C13.6594 2 14.2628 2.32468 14.6166 2.8584L23.6683 16.8818C24.0633 17.4887 24.0942 18.2732 23.7718 18.9219C23.439 19.5811 22.7734 19.9999 22.0453 20H3.94273C3.21447 20 2.55852 19.5916 2.21519 18.9219C1.88244 18.2732 1.9245 17.4992 2.31968 16.8818L11.3705 2.8584C11.7138 2.31426 12.3277 2.00005 12.9935 2ZM12.9935 3.56934C12.987 3.56966 12.7643 3.58224 12.682 3.71582L3.63023 17.7393C3.547 17.8753 3.5369 18.0644 3.60972 18.2109C3.68259 18.3467 3.80764 18.4307 3.94273 18.4307H22.0345C22.1697 18.4307 22.305 18.3468 22.3675 18.2109C22.4404 18.0644 22.4303 17.8753 22.347 17.7393L13.306 3.71582C13.2227 3.58 13.0455 3.56934 12.9935 3.56934Z" fill="#3C3B44"/>
</g>
<defs>
<clipPath id="clip0_4536_425">
<rect width="24" height="24" fill="white"/>
</clipPath>
</defs>
</svg>

<svg xmlns="http://www.w3.org/2000/svg" width="24" height="24" fill="none" viewBox="0 0 24 24"><g fill="currentColor" clip-path="url(#a)"><path d="M12.987 15c.511 0 1.004.483 1.004.995S13.498 17 12.987 17c-.512 0-.995-.493-.995-1.005s.483-.995.995-.995m.005-9c.55 0 .999.387.999.862v6.276c0 .475-.449.862-1 .862s-.998-.387-.998-.862V6.862c0-.475.448-.862.999-.862"/><path fill-rule="evenodd" d="M12.994 2c.665 0 1.269.325 1.623.858l9.051 14.024a2.07 2.07 0 0 1 .104 2.04A1.94 1.94 0 0 1 22.045 20H3.943c-.729 0-1.384-.408-1.728-1.078a2.05 2.05 0 0 1 .105-2.04l9.05-14.024c.344-.544.958-.858 1.624-.858m0 1.57c-.007 0-.23.012-.312.146L3.63 17.739a.5.5 0 0 0-.02.472c.073.136.198.22.333.22h18.092c.135 0 .27-.084.332-.22a.5.5 0 0 0-.02-.472L13.306 3.716c-.083-.136-.26-.147-.312-.147" clip-rule="evenodd"/></g><defs><clipPath id="a"><path fill="currentColor" d="M0 0h24v24H0z"/></clipPath></defs></svg>
